local/share/icons/dracula-icons-main/16/devices/printer-network.svg

<svg xmlns="http://www.w3.org/2000/svg" width="16" height="16" version="1.1" viewBox="0 0 16 16">
 <defs>
  <style id="current-color-scheme" type="text/css">
   .ColorScheme-Text { color:#727272; } .ColorScheme-Highlight { color:#5294e2; }
  </style>
 </defs>
 <path style="fill:currentColor" class="ColorScheme-Text" d="M 4,-5e-8 V 2.9999999 h 8 V -5e-8 Z M 2,3.9999999 c -0.5,0 -1,0.5 -1,1 V 8 H 15 V 4.9999999 c 0,-0.5 -0.5,-1 -1,-1 z M 1,9 v 3 c 0,0 0,1 1,1 h 5 v 2 h 2 v -2 h 5 c 1,0 1,-1 1,-1 V 9.0000001 Z m 2,1 h 1 v 1 H 3 Z"/>
</svg>

<?xml version="1.0" encoding="UTF-8"?>
<svg xmlns="http://www.w3.org/2000/svg" xmlns:xlink="http://www.w3.org/1999/xlink" width="16" height="16" viewBox="0 0 16 16">
<path fill-rule="nonzero" fill="rgb(44.705882%, 44.705882%, 44.705882%)" fill-opacity="1" d="M 4 0 L 4 3 L 12 3 L 12 0 Z M 2 4 C 1.5 4 1 4.5 1 5 L 1 8 L 15 8 L 15 5 C 15 4.5 14.5 4 14 4 Z M 1 9 L 1 12 C 1 12 1 13 2 13 L 7 13 L 7 15 L 9 15 L 9 13 L 14 13 C 15 13 15 12 15 12 L 15 9 Z M 3 10 L 4 10 L 4 11 L 3 11 Z M 3 10 "/>
</svg>
